icons/hicolor/scalable/apps/pattern-office.svg

<?xml version="1.0" encoding="UTF-8" standalone="no"?>
<svg
   xmlns:dc="http://purl.org/dc/elements/1.1/"
   xmlns:cc="http://creativecommons.org/ns#"
   xmlns:rdf="http://www.w3.org/1999/02/22-rdf-syntax-ns#"
   xmlns:svg="http://www.w3.org/2000/svg"
   xmlns="http://www.w3.org/2000/svg"
   xmlns:xlink="http://www.w3.org/1999/xlink"
   id="svg35"
   viewBox="0 0 32 32"
   version="1.1">
  <defs
     id="defs13">
    <linearGradient
       id="linearGradient1396">
      <stop
         id="stop1392"
         offset="0"
         style="stop-color:#8ff0a4;stop-opacity:1" />
      <stop
         id="stop1394"
         offset="1"
         style="stop-color:#98c1f1;stop-opacity:1" />
    </linearGradient>
    <linearGradient
       id="linearGradient1315">
      <stop
         id="stop1311"
         offset="0"
         style="stop-color:#241f31;stop-opacity:1;" />
      <stop
         id="stop1313"
         offset="1"
         style="stop-color:#3d3846;stop-opacity:1" />
    </linearGradient>
    <linearGradient
       id="linearGradient1288">
      <stop
         id="stop1284"
         offset="0"
         style="stop-color:#c0bfbc;stop-opacity:1;" />
      <stop
         id="stop1286"
         offset="1"
         style="stop-color:#f6f5f4;stop-opacity:1" />
    </linearGradient>
    <linearGradient
       id="linearGradient1270">
      <stop
         id="stop1266"
         offset="0"
         style="stop-color:#c0bfbc;stop-opacity:1" />
      <stop
         id="stop1268"
         offset="1"
         style="stop-color:#9a9996;stop-opacity:1" />
    </linearGradient>
    <linearGradient
       id="linearGradient1262">
      <stop
         id="stop1258"
         offset="0"
         style="stop-color:#c0bfbc;stop-opacity:1;" />
      <stop
         id="stop1260"
         offset="1"
         style="stop-color:#f6f5f4;stop-opacity:1" />
    </linearGradient>
    <linearGradient
       id="linearGradient957">
      <stop
         id="stop953"
         offset="0"
         style="stop-color:#deddda;stop-opacity:1" />
      <stop
         id="stop955"
         offset="1"
         style="stop-color:#f6f5f4;stop-opacity:1" />
    </linearGradient>
    <linearGradient
       gradientTransform="translate(-1)"
       gradientUnits="userSpaceOnUse"
       y2="17.5"
       x2="20.001324"
       y1="17.5"
       x1="6.9986759"
       id="linearGradient959"
       xlink:href="#linearGradient957" />
    <linearGradient
       gradientUnits="userSpaceOnUse"
       y2="21.5"
       x2="30"
       y1="21.5"
       x1="2"
       id="linearGradient1264"
       xlink:href="#linearGradient1262" />
    <linearGradient
       gradientUnits="userSpaceOnUse"
       y2="26"
       x2="15"
       y1="29"
       x1="15"
       id="linearGradient1272"
       xlink:href="#linearGradient1270" />
    <linearGradient
       gradientUnits="userSpaceOnUse"
       y2="14.5"
       x2="28"
       y1="14.5"
       x1="26"
       id="linearGradient1290"
       xlink:href="#linearGradient1288" />
    <linearGradient
       gradientUnits="userSpaceOnUse"
       y2="16.5"
       x2="23"
       y1="16.5"
       x1="9"
       id="linearGradient1317"
       xlink:href="#linearGradient1315" />
    <linearGradient
       gradientTransform="translate(0,1)"
       gradientUnits="userSpaceOnUse"
       y2="14"
       x2="16"
       y1="4"
       x1="12"
       id="linearGradient1398"
       xlink:href="#linearGradient1396" />
  </defs>
  <metadata
     id="metadata15">
    <rdf:RDF>
      <cc:Work
         rdf:about="">
        <dc:format>image/svg+xml</dc:format>
        <dc:type
           rdf:resource="http://purl.org/dc/dcmitype/StillImage" />
        <dc:creator>
          <cc:Agent>
            <dc:title>Jakub Steiner</dc:title>
          </cc:Agent>
        </dc:creator>
        <dc:source>http://jimmac.musichall.cz</dc:source>
        <cc:license
           rdf:resource="http://creativecommons.org/licenses/by-sa/2.0/" />
        <dc:title></dc:title>
        <dc:subject>
          <rdf:Bag>
            <rdf:li>apparmor</rdf:li>
            <rdf:li>novell</rdf:li>
          </rdf:Bag>
        </dc:subject>
      </cc:Work>
      <cc:License
         rdf:about="http://creativecommons.org/licenses/by-sa/2.0/">
        <cc:permits
           rdf:resource="http://web.resource.org/cc/Reproduction" />
        <cc:permits
           rdf:resource="http://web.resource.org/cc/Distribution" />
        <cc:requires
           rdf:resource="http://web.resource.org/cc/Notice" />
        <cc:requires
           rdf:resource="http://web.resource.org/cc/Attribution" />
        <cc:permits
           rdf:resource="http://web.resource.org/cc/DerivativeWorks" />
        <cc:requires
           rdf:resource="http://web.resource.org/cc/ShareAlike" />
      </cc:License>
    </rdf:RDF>
  </metadata>
  <rect
     y="5"
     x="4"
     height="22"
     width="18"
     id="rect1406-5"
     style="opacity:1;fill:#c0bfbc;fill-opacity:1;stroke:none;stroke-width:2;stroke-linecap:butt;stroke-linejoin:round;stroke-miterlimit:4;stroke-dasharray:none;stroke-opacity:1" />
  <rect
     y="5"
     x="4"
     height="21"
     width="18"
     id="rect1406"
     style="opacity:1;fill:#f6f5f4;fill-opacity:1;stroke:none;stroke-width:2;stroke-linecap:butt;stroke-linejoin:round;stroke-miterlimit:4;stroke-dasharray:none;stroke-opacity:1" />
  <rect
     rx="0"
     y="5"
     x="11"
     height="12"
     width="17"
     id="rect1388-7"
     style="opacity:1;fill:#c0bfbc;fill-opacity:1;stroke:none;stroke-width:2;stroke-linecap:butt;stroke-linejoin:round;stroke-miterlimit:4;stroke-dasharray:none;stroke-opacity:1" />
  <rect
     rx="0"
     y="4"
     x="11"
     height="12"
     width="17"
     id="rect1388"
     style="opacity:1;fill:#f6f5f4;fill-opacity:1;stroke:none;stroke-width:2;stroke-linecap:butt;stroke-linejoin:round;stroke-miterlimit:4;stroke-dasharray:none;stroke-opacity:1" />
  <rect
     y="5"
     x="12"
     height="10"
     width="4"
     id="rect1390"
     style="opacity:1;fill:url(#linearGradient1398);fill-opacity:1;stroke:none;stroke-width:2;stroke-linecap:butt;stroke-linejoin:round;stroke-miterlimit:4;stroke-dasharray:none;stroke-opacity:1" />
  <rect
     y="7"
     x="18"
     height="2"
     width="8"
     id="rect1400"
     style="opacity:1;fill:#77767b;fill-opacity:1;stroke:none;stroke-width:1.88561809;stroke-linecap:butt;stroke-linejoin:round;stroke-miterlimit:4;stroke-dasharray:none;stroke-opacity:1" />
  <rect
     y="11"
     x="20"
     height="1"
     width="4"
     id="rect1402"
     style="opacity:1;fill:#deddda;fill-opacity:1;stroke:none;stroke-width:1.78885436;stroke-linecap:butt;stroke-linejoin:round;stroke-miterlimit:4;stroke-dasharray:none;stroke-opacity:1" />
  <rect
     y="23"
     x="5"
     height="1"
     width="16"
     id="rect1438"
     style="opacity:1;fill:#deddda;fill-opacity:1;stroke:none;stroke-width:2;stroke-linecap:butt;stroke-linejoin:round;stroke-miterlimit:4;stroke-dasharray:none;stroke-opacity:1" />
  <rect
     y="21"
     x="5"
     height="1"
     width="16"
     id="rect1440"
     style="opacity:1;fill:#deddda;fill-opacity:1;stroke:none;stroke-width:2;stroke-linecap:butt;stroke-linejoin:round;stroke-miterlimit:4;stroke-dasharray:none;stroke-opacity:1" />
  <rect
     y="19"
     x="5"
     height="1"
     width="16"
     id="rect1438-9"
     style="opacity:1;fill:#deddda;fill-opacity:1;stroke:none;stroke-width:2;stroke-linecap:butt;stroke-linejoin:round;stroke-miterlimit:4;stroke-dasharray:none;stroke-opacity:1" />
  <rect
     y="17"
     x="5"
     height="1"
     width="16"
     id="rect1440-2"
     style="opacity:1;fill:#deddda;fill-opacity:1;stroke:none;stroke-width:2;stroke-linecap:butt;stroke-linejoin:round;stroke-miterlimit:4;stroke-dasharray:none;stroke-opacity:1" />
  <rect
     y="15"
     x="5"
     height="1"
     width="6"
     id="rect1438-2"
     style="opacity:1;fill:#deddda;fill-opacity:1;stroke:none;stroke-width:1.22474492;stroke-linecap:butt;stroke-linejoin:round;stroke-miterlimit:4;stroke-dasharray:none;stroke-opacity:1" />
  <rect
     y="13"
     x="5"
     height="1"
     width="6"
     id="rect1440-8"
     style="opacity:1;fill:#deddda;fill-opacity:1;stroke:none;stroke-width:1.22474492;stroke-linecap:butt;stroke-linejoin:round;stroke-miterlimit:4;stroke-dasharray:none;stroke-opacity:1" />
  <rect
     y="11"
     x="5"
     height="1"
     width="6"
     id="rect1440-8-9"
     style="opacity:1;fill:#deddda;fill-opacity:1;stroke:none;stroke-width:1.22474492;stroke-linecap:butt;stroke-linejoin:round;stroke-miterlimit:4;stroke-dasharray:none;stroke-opacity:1" />
  <rect
     y="9"
     x="5"
     height="1"
     width="6"
     id="rect1440-8-7"
     style="opacity:1;fill:#deddda;fill-opacity:1;stroke:none;stroke-width:1.22474492;stroke-linecap:butt;stroke-linejoin:round;stroke-miterlimit:4;stroke-dasharray:none;stroke-opacity:1" />
  <rect
     y="7"
     x="5"
     height="1"
     width="6"
     id="rect1440-8-3"
     style="opacity:1;fill:#deddda;fill-opacity:1;stroke:none;stroke-width:1.22474492;stroke-linecap:butt;stroke-linejoin:round;stroke-miterlimit:4;stroke-dasharray:none;stroke-opacity:1" />
  <rect
     y="20"
     x="11"
     height="9"
     width="17"
     id="rect1505"
     style="opacity:1;fill:#c0bfbc;fill-opacity:1;stroke:none;stroke-width:2;stroke-linecap:butt;stroke-linejoin:round;stroke-miterlimit:4;stroke-dasharray:none;stroke-opacity:1" />
  <rect
     y="19"
     x="11"
     height="9"
     width="17"
     id="rect1505-6"
     style="opacity:1;fill:#f6f5f4;fill-opacity:1;stroke:none;stroke-width:2;stroke-linecap:butt;stroke-linejoin:round;stroke-miterlimit:4;stroke-dasharray:none;stroke-opacity:1" />
  <rect
     y="20"
     x="12"
     height="7"
     width="1"
     id="rect1522"
     style="opacity:1;fill:#deddda;fill-opacity:1;stroke:none;stroke-width:2;stroke-linecap:butt;stroke-linejoin:round;stroke-miterlimit:4;stroke-dasharray:none;stroke-opacity:1" />
  <rect
     y="26"
     x="13"
     height="1"
     width="14"
     id="rect1524"
     style="opacity:1;fill:#deddda;fill-opacity:1;stroke:none;stroke-width:2;stroke-linecap:butt;stroke-linejoin:round;stroke-miterlimit:4;stroke-dasharray:none;stroke-opacity:1" />
  <path
     id="path1528"
     d="M 21.953125 19.105469 L 18.855469 24.265625 L 15.017578 21.388672 L 13 22.732422 L 13 23.933594 L 14.982422 22.611328 L 19.142578 25.732422 L 22.046875 20.896484 L 24.599609 24.300781 L 25.400391 23.699219 L 21.953125 19.105469 z "
     style="color:#000000;font-style:normal;font-variant:normal;font-weight:normal;font-stretch:normal;font-size:medium;line-height:normal;font-family:sans-serif;font-variant-ligatures:normal;font-variant-position:normal;font-variant-caps:normal;font-variant-numeric:normal;font-variant-alternates:normal;font-feature-settings:normal;text-indent:0;text-align:start;text-decoration:none;text-decoration-line:none;text-decoration-style:solid;text-decoration-color:#000000;letter-spacing:normal;word-spacing:normal;text-transform:none;writing-mode:lr-tb;direction:ltr;text-orientation:mixed;dominant-baseline:auto;baseline-shift:baseline;text-anchor:start;white-space:normal;shape-padding:0;clip-rule:nonzero;display:inline;overflow:visible;visibility:visible;opacity:1;isolation:auto;mix-blend-mode:normal;color-interpolation:sRGB;color-interpolation-filters:linearRGB;solid-color:#000000;solid-opacity:1;vector-effect:none;fill:#33d17a;fill-opacity:1;fill-rule:nonzero;stroke:none;stroke-width:1px;stroke-linecap:butt;stroke-linejoin:miter;stroke-miterlimit:4;stroke-dasharray:none;stroke-dashoffset:0;stroke-opacity:1;color-rendering:auto;image-rendering:auto;shape-rendering:auto;text-rendering:auto;enable-background:accumulate" />
</svg>

<svg version="1.1" viewBox="0 0 32 32" width="32" height="32" xmlns="http://www.w3.org/2000/svg" xmlns:xlink="http://www.w3.org/1999/xlink">
 <defs>
  <linearGradient id="a" x1="12" x2="16" y1="4" y2="14" gradientTransform="translate(0,1)" gradientUnits="userSpaceOnUse">
   <stop stop-color="#8ff0a4" offset="0"/>
   <stop stop-color="#98c1f1" offset="1"/>
  </linearGradient>
 </defs>
 <g>
  <rect x="4" y="5" width="18" height="22" fill="#c0bfbc"/>
  <rect x="4" y="5" width="18" height="21" fill="#f6f5f4"/>
  <rect x="11" y="5" width="17" height="12" rx="0" fill="#c0bfbc"/>
  <rect x="11" y="4" width="17" height="12" rx="0" fill="#f6f5f4"/>
  <rect x="12" y="5" width="4" height="10" fill="url(#a)"/>
  <rect x="18" y="7" width="8" height="2" fill="#77767b"/>
 </g>
 <g fill="#deddda">
  <rect x="20" y="11" width="4" height="1"/>
  <rect x="5" y="23" width="16" height="1"/>
  <rect x="5" y="21" width="16" height="1"/>
  <rect x="5" y="19" width="16" height="1"/>
  <rect x="5" y="17" width="16" height="1"/>
  <rect x="5" y="15" width="6" height="1"/>
  <rect x="5" y="13" width="6" height="1"/>
  <rect x="5" y="11" width="6" height="1"/>
  <rect x="5" y="9" width="6" height="1"/>
  <rect x="5" y="7" width="6" height="1"/>
 </g>
 <g>
  <rect x="11" y="20" width="17" height="9" fill="#c0bfbc"/>
  <rect x="11" y="19" width="17" height="9" fill="#f6f5f4"/>
  <rect x="12" y="20" width="1" height="7" fill="#deddda"/>
  <rect x="13" y="26" width="14" height="1" fill="#deddda"/>
  <path d="m21.953 19.105-3.0977 5.1602-3.8379-2.877-2.0176 1.3438v1.2012l1.9824-1.3223 4.1602 3.1211 2.9043-4.8359 2.5527 3.4043 0.80078-0.60156-3.4473-4.5938z" color="#000000" color-rendering="auto" dominant-baseline="auto" fill="#33d17a" image-rendering="auto" shape-rendering="auto" solid-color="#000000" style="font-feature-settings:normal;font-variant-alternates:normal;font-variant-caps:normal;font-variant-ligatures:normal;font-variant-numeric:normal;font-variant-position:normal;isolation:auto;mix-blend-mode:normal;shape-padding:0;text-decoration-color:#000000;text-decoration-line:none;text-decoration-style:solid;text-indent:0;text-orientation:mixed;text-transform:none;white-space:normal"/>
 </g>
</svg>
